library/pictures/svg/honhai.svg

<svg viewBox="0 0 25 22" fill="none" xmlns="http://www.w3.org/2000/svg">
<path fill-rule="evenodd" clip-rule="evenodd" d="M12.2 1.81799V7.84799H8.15V1.81799H0.05L0 21.958H8.1V15.878H12.1L12.15 21.908H20.25V1.81799H12.2ZM18.21 19.898H14.21V15.838C14.1807 15.3315 13.9637 14.8541 13.6012 14.499C13.2388 14.144 12.757 13.9368 12.25 13.918H8.15C7.63108 13.9237 7.13327 14.1243 6.75537 14.48C6.37747 14.8356 6.14711 15.3204 6.11 15.838V19.948H2.06V3.82799H6.11V9.84799H15.159C15.9469 9.93822 16.6798 10.2964 17.235 10.8626C17.7903 11.4288 18.1341 12.1685 18.209 12.958L18.21 19.898Z" fill="#E83434"/>
<path fill-rule="evenodd" clip-rule="evenodd" d="M18.209 12.958V19.9H14.209V15.84C14.1797 15.3335 13.9627 14.8561 13.6002 14.501C13.2378 14.146 12.756 13.9388 12.249 13.92H8.15C7.63108 13.9257 7.13327 14.1263 6.75537 14.482C6.37747 14.8376 6.14711 15.3224 6.11 15.84V19.95H2.06V3.828H6.11V9.848H15.159C15.9469 9.93823 16.6798 10.2964 17.235 10.8626C17.7903 11.4288 18.1341 12.1685 18.209 12.958Z" fill="white"/>
<path d="M21.041 1.73798C21.0407 1.27799 21.2229 0.836688 21.5476 0.510864C21.8723 0.185041 22.313 0.00132401 22.773 0C23.2331 0.00105976 23.6739 0.184678 23.9987 0.510559C24.3234 0.83644 24.5055 1.27791 24.505 1.73798C24.5053 2.19797 24.3231 2.63933 23.9984 2.96515C23.6737 3.29097 23.233 3.47469 22.773 3.47601C22.313 3.47469 21.8723 3.29097 21.5476 2.96515C21.2229 2.63933 21.0407 2.19797 21.041 1.73798ZM21.165 1.73798C21.1647 2.16508 21.3339 2.57487 21.6353 2.87744C21.9367 3.18001 22.3459 3.35067 22.773 3.35199C23.1698 3.35227 23.5526 3.20511 23.847 2.93903H23.513C23.499 2.91432 23.4898 2.88715 23.486 2.85901C23.4767 2.79605 23.4711 2.73261 23.469 2.66901L23.449 2.26898C23.453 2.20497 23.4387 2.14117 23.4077 2.08502C23.3767 2.02887 23.3303 1.98273 23.274 1.95203C23.1814 1.91767 23.0827 1.90269 22.984 1.90802H22.248V2.93903H21.917V0.539001H23.031C23.1866 0.533729 23.3416 0.560994 23.486 0.619019C23.595 0.666366 23.6864 0.746775 23.7472 0.848877C23.808 0.950979 23.8353 1.06958 23.825 1.18799C23.8304 1.31227 23.7991 1.4354 23.735 1.54199C23.67 1.63597 23.5823 1.712 23.48 1.763C23.564 1.79309 23.6385 1.84486 23.696 1.91302C23.7518 2.00289 23.7796 2.1073 23.776 2.21301L23.789 2.53601C23.7895 2.6049 23.7969 2.67359 23.811 2.74103C23.8159 2.77069 23.8275 2.79884 23.8448 2.82343C23.8621 2.84801 23.8847 2.86837 23.911 2.883C24.061 2.73311 24.1799 2.55505 24.2609 2.35907C24.3419 2.16309 24.3834 1.95309 24.383 1.74103C24.3835 1.31384 24.2145 0.903884 23.913 0.601257C23.6115 0.298631 23.2022 0.128074 22.775 0.127014C22.3481 0.127808 21.9389 0.297815 21.6371 0.599792C21.3353 0.90177 21.1655 1.31105 21.165 1.73798ZM22.249 1.638H22.998C23.1245 1.64416 23.2499 1.61212 23.358 1.54602C23.4054 1.50605 23.4422 1.45501 23.4652 1.39746C23.4882 1.33991 23.4967 1.27762 23.49 1.216C23.4974 1.14564 23.4836 1.07466 23.4505 1.01215C23.4174 0.949629 23.3664 0.89839 23.304 0.86499C23.2201 0.829088 23.1292 0.812337 23.038 0.815979H22.249V1.638Z" fill="#E83434"/>
</svg>

<svg xmlns="http://www.w3.org/2000/svg" viewBox="0 0 24.51 21.96"><defs><style>.cls-1,.cls-3{fill:#e83434;}.cls-1,.cls-2{fill-rule:evenodd;}.cls-2{fill:#fff;}</style></defs><title>Asset 1a</title><g id="Layer_2" data-name="Layer 2"><g id="Layer_1-2" data-name="Layer 1"><path class="cls-1" d="M12.2,1.82v6h-4v-6H.05L0,22H8.1V15.88h4l.05,6h8.1V1.82Zm6,18.08h-4V15.84a2,2,0,0,0-.61-1.34,2,2,0,0,0-1.35-.58H8.15a2,2,0,0,0-1.39.56,2.09,2.09,0,0,0-.65,1.36V20H2.06V3.83H6.11v6h9.05A3.44,3.44,0,0,1,18.21,13Z"/><path class="cls-2" d="M18.21,13V19.9h-4V15.84a2,2,0,0,0-2-1.92H8.15a2.07,2.07,0,0,0-2,1.92V20H2.06V3.83H6.11v6h9.05A3.44,3.44,0,0,1,18.21,13Z"/><path class="cls-3" d="M21,1.74a1.73,1.73,0,1,1,3.46,0A1.72,1.72,0,0,1,24,3a1.82,1.82,0,0,1-1.23.51A1.78,1.78,0,0,1,21.55,3,1.73,1.73,0,0,1,21,1.74Zm.13,0a1.55,1.55,0,0,0,.47,1.14,1.61,1.61,0,0,0,2.21.06h-.34a.24.24,0,0,1,0-.08,1.23,1.23,0,0,1,0-.19l0-.4a.34.34,0,0,0,0-.18A.32.32,0,0,0,23.27,2a.7.7,0,0,0-.29,0h-.73v1h-.33V.54H23a1,1,0,0,1,.46.08.64.64,0,0,1,.26.23.57.57,0,0,1,.08.34.7.7,0,0,1-.09.35.68.68,0,0,1-.26.22.54.54,0,0,1,.22.15.64.64,0,0,1,.08.3v.33a1.5,1.5,0,0,0,0,.2l0,.08a.13.13,0,0,0,.07.06,1.54,1.54,0,0,0,.35-.52,1.67,1.67,0,0,0,.12-.62,1.61,1.61,0,1,0-3.21,0Zm1.08-.1H23a.77.77,0,0,0,.36-.09.42.42,0,0,0,.11-.15.37.37,0,0,0,0-.18.38.38,0,0,0,0-.21A.36.36,0,0,0,23.3.86a.57.57,0,0,0-.26,0h-.79Z"/></g></g></svg>
